public/images/Footer/facebook-icon.svg

<svg width="21" height="21" viewBox="0 0 21 21" fill="none" xmlns="http://www.w3.org/2000/svg">
<path fill-rule="evenodd" clip-rule="evenodd" d="M20.4844 2.94632C20.2792 2.39021 19.9518 1.88684 19.5263 1.47367C19.1132 1.04825 18.6101 0.72084 18.0537 0.515615C17.6024 0.34034 16.9244 0.131712 15.6757 0.0748748C14.3249 0.0132733 13.9199 0 10.5002 0C7.08009 0 6.67509 0.0129329 5.32462 0.0745345C4.07591 0.131712 3.39761 0.34034 2.94666 0.515615C2.39021 0.72084 1.88684 1.04825 1.47401 1.47367C1.04859 1.88684 0.72118 2.38987 0.515615 2.94632C0.34034 3.39761 0.131712 4.07591 0.0748748 5.32462C0.0132733 6.67509 0 7.08009 0 10.5002C0 13.9199 0.0132733 14.3249 0.0748748 15.6757C0.131712 16.9244 0.34034 17.6024 0.515615 18.0537C0.72118 18.6101 1.04825 19.1132 1.47367 19.5263C1.88684 19.9518 2.38987 20.2792 2.94632 20.4844C3.39761 20.66 4.07591 20.8686 5.32462 20.9255C6.67509 20.9871 7.07975 21 10.4998 21C13.9202 21 14.3253 20.9871 15.6754 20.9255C16.9241 20.8686 17.6024 20.66 18.0537 20.4844C19.1707 20.0535 20.0535 19.1707 20.4844 18.0537C20.6597 17.6024 20.8683 16.9244 20.9255 15.6757C20.9871 14.3249 21 13.9199 21 10.5002C21 7.08009 20.9871 6.67509 20.9255 5.32462C20.8686 4.07591 20.66 3.39761 20.4844 2.94632ZM8.45396 20.9549V13.891H5.5762V10.498H8.45396V8.00119C8.45396 5.10552 10.2013 3.52948 12.7545 3.52948C13.9771 3.52948 15.0281 3.6217 15.3344 3.66285V6.6892H13.5738C12.1848 6.6892 11.9159 7.35708 11.9159 8.33699V10.498H15.2371L14.8043 13.891H11.9159V20.9549H8.45396Z" fill="white"/>
</svg>

<svg xmlns="http://www.w3.org/2000/svg" width="21" height="21" fill="none" xmlns:v="https://vecta.io/nano"><path fill-rule="evenodd" d="M20.484 2.946c-.205-.556-.533-1.059-.958-1.473-.413-.425-.916-.753-1.473-.958-.451-.175-1.129-.384-2.378-.441L10.5 0 5.325.075C4.076.132 3.398.34 2.947.516c-.556.205-1.06.533-1.473.958a3.97 3.97 0 0 0-.958 1.473C.34 3.398.132 4.076.075 5.325L0 10.5l.075 5.176c.057 1.249.265 1.927.441 2.378a3.97 3.97 0 0 0 .958 1.473c.413.425.916.753 1.473.958.451.176 1.13.384 2.378.441L10.5 21l5.176-.075c1.249-.057 1.927-.265 2.378-.441a4.24 4.24 0 0 0 2.431-2.431c.175-.451.384-1.129.441-2.378L21 10.5l-.075-5.176c-.057-1.249-.265-1.927-.441-2.378zM8.454 20.955v-7.064H5.576v-3.393h2.878V8.001c0-2.896 1.747-4.472 4.301-4.472 1.223 0 2.274.092 2.58.133v3.026h-1.761c-1.389 0-1.658.668-1.658 1.648v2.161h3.321l-.433 3.393h-2.888v7.064H8.454z" fill="#fff"/></svg>
